img/icons/this/catalog/succulent.svg

<svg width="116" height="123" viewBox="0 0 116 123" fill="none" xmlns="http://www.w3.org/2000/svg">
<path d="M30.3988 28.5607C25.9675 20.9779 28.792 17.3551 31.0753 14.4605C32.5468 12.5781 33.7138 11.0864 33.1726 8.76008L32.5975 6.34497L34.4918 7.81889C37.1641 9.91438 39.1429 9.54146 41.0541 9.18629C42.644 8.8844 44.2846 8.5825 46.0097 9.79007L45.0795 11.264C43.9125 10.4649 42.7793 10.6602 41.3417 10.9266C39.6165 11.2463 37.5362 11.6192 34.9823 10.234C34.8639 12.3828 33.5954 13.9988 32.3776 15.5615C30.1451 18.4206 28.031 21.1022 31.8364 27.6195L30.3988 28.5607Z" fill="#B692B2"/>
<path d="M18.3423 98.3516L6.07522 98.316C5.85513 98.2273 0.467241 96.359 0.698914 80.039L0.989998 78.8707L18.8172 78.7463V80.5222L2.12519 80.6465C2.09044 93.8942 5.79721 96.3094 6.30689 96.5758H18.3423V98.3516Z" fill="#92B69A"/>
<path d="M56.3158 96.5757H45.1453V98.3516H56.3158V96.5757Z" fill="#B692B2"/>
<path d="M109.465 98.3517H84.6794V96.5759H109.112C113.115 92.9532 112.461 82.8309 112.196 80.0251H101.049L100.666 78.2493H113.279L113.38 78.9774C113.455 79.5634 115.205 93.5392 109.641 98.2274L109.465 98.3517Z" fill="#92B69A"/>
<path d="M73.0286 116.198H17.9887C7.80849 116.198 6.16551 98.3155 6.1041 97.5519L7.63958 97.3743C7.65493 97.5519 9.20577 114.422 18.0041 114.422H71.9071L72.6916 115.189L73.1065 116.198H73.0286Z" fill="#92B69A"/>
<path d="M99.1632 116.198H75.3964L75.9105 114.422H99.1632C106.953 114.422 108.326 97.5519 108.339 97.3743L109.699 97.5519C109.631 98.3155 108.176 116.198 99.1632 116.198Z" fill="#92B69A"/>
<path d="M98.9844 123H17.3474L17.2231 122.858C15.1104 120.496 15.7111 115.346 15.7318 115.133L15.8147 114.423H29.174V116.198H16.6846C16.6224 117.424 16.6431 119.892 17.658 121.224H98.6531C99.6783 119.892 99.6887 117.424 99.6265 116.198H86.4018V114.423H100.517L100.6 115.133C100.631 115.346 101.221 120.478 99.1087 122.858L98.9844 123Z" fill="#92B69A"/>
<path d="M65.4596 63.4741C61.9924 63.4741 59.6076 62.8881 59.5061 62.8703L59.2017 62.7993L59.0156 62.5507C52.7408 53.8136 50.4406 47.5094 52.1996 43.8156C53.1806 41.7557 55.4131 40.6013 58.4913 40.6013C60.9945 40.6013 63.3962 41.3472 64.5801 42.0398C65.6456 42.6613 66.8127 42.981 68.0642 42.981C70.2122 42.981 71.819 42.0576 71.8359 42.0398L72.394 41.7201L72.8507 42.1818C72.8845 42.2174 73.764 43.052 75.7598 43.052C76.7915 43.052 77.9247 42.8211 79.1593 42.3772C80.1572 42.0042 81.2735 41.8089 82.3559 41.8089C84.8929 41.8089 86.9056 42.8744 87.7513 44.6503C88.8506 47.0121 87.9542 50.2086 85.0451 54.1865C79.413 61.8759 71.2778 63.4741 65.4596 63.4741ZM60.1658 61.2188C60.8761 61.3609 62.855 61.716 65.4427 61.716C70.8888 61.716 78.4828 60.2244 83.6752 53.121C86.0769 49.8357 86.9733 47.1187 86.1953 45.4494C85.654 44.2951 84.1995 43.6025 82.3221 43.6025C81.4257 43.6025 80.5124 43.7623 79.6836 44.0642C78.2798 44.5792 76.9437 44.8456 75.726 44.8456C73.9162 44.8456 72.7323 44.2773 72.1234 43.8689C71.3792 44.2063 69.874 44.7745 68.0304 44.7745C66.4913 44.7745 65.0537 44.3839 63.7344 43.6203C62.7027 43.0165 60.5548 42.4127 58.4575 42.4127C56.7493 42.4127 54.5505 42.8034 53.6711 44.6325C52.893 46.3018 52.6901 50.7059 60.1658 61.2188Z" fill="#B692B2"/>
<path d="M60.1153 62.7818L59.2527 61.2546C70.5169 54.1867 71.3964 42.8746 71.3964 42.7681L73.0878 42.8924C73.0539 43.3896 72.1744 55.199 60.1153 62.7818Z" fill="#B692B2"/>
<path d="M72.056 43.407L70.3815 43.1761C71.0581 37.7243 67.4386 34.368 57.4937 31.207C53.333 29.8929 50.6945 27.9749 49.6459 25.5243C49.5783 25.3645 49.5275 25.2224 49.4768 25.0626C48.462 27.3534 47.4979 30.5854 48.4789 33.7464C49.4091 36.7831 51.9799 39.2338 56.1068 41.0806L55.4471 42.7144C50.8467 40.6721 47.9546 37.8308 46.8721 34.2969C45.1808 28.8096 48.3267 23.3755 49.3753 21.5819L49.5444 21.28L51.0497 22.0969C51.0328 22.1324 50.5592 23.34 51.2188 24.8317C52.0645 26.7496 54.4154 28.3656 58.001 29.5022C65.8826 32.0061 73.0369 35.4335 72.056 43.407Z" fill="#B692B2"/>
<path d="M87.5993 46.355L86.7367 44.8278C95.1595 39.6423 96.4788 31.1006 96.4449 26.0394C94.7198 28.863 91.5231 30.6921 88.2081 32.5923C83.4386 35.3271 78.4999 38.1506 76.6395 44.2418L75.0327 43.6913C77.113 36.9431 82.576 33.7998 87.4132 31.0295C91.9291 28.4368 95.8191 26.217 96.0897 21.6708L96.4618 15.2068L97.7472 21.5465C97.7641 21.7064 100.944 38.1329 87.5993 46.355Z" fill="#B692B2"/>
<path d="M82.4913 36.1262L81.0198 35.2383C83.1847 31.3314 80.1234 27.1227 76.1488 24.6898C73.2566 22.9317 71.819 20.41 71.1086 18.5631C69.4681 21.0315 66.4744 22.5588 63.7514 23.9262C59.7599 25.9506 57.3751 27.3535 57.7641 29.9462L56.0897 30.2126C55.4808 26.146 59.3201 24.1925 63.0241 22.3279C66.3053 20.6586 69.7049 18.936 70.4829 15.8461L71.5653 11.6018L72.1404 15.9526C72.1404 16.0059 72.8 20.5876 76.9945 23.1448C82.6604 26.6077 84.876 31.8109 82.4913 36.1262Z" fill="#B692B2"/>
<path d="M78.4152 25.5773L77.4512 24.1212C89.0029 15.7038 97.0198 20.7649 97.3581 20.978L96.4617 22.4874C96.1741 22.2743 89.0029 17.8525 78.4152 25.5773Z" fill="#B692B2"/>
<path d="M90.9648 59.6735C87.616 59.6735 84.487 58.7855 81.6794 57.0274L82.542 55.5002C86.6012 58.0574 91.4722 58.5902 96.6308 57.0274C103.515 54.9497 109.417 49.6932 112.242 45.0583C111.058 45.0405 109.502 44.7209 108.267 43.4778C106.102 41.2935 98.7619 36.1258 93.5864 40.8673L92.4701 39.5355C98.6096 33.8883 106.796 39.5532 109.434 42.1992C111.024 43.7975 113.561 43.1581 113.578 43.1581L115.371 42.6964L114.525 44.4367C112.056 49.5334 105.544 56.1928 97.0874 58.75C95.0071 59.3538 92.9437 59.6735 90.9648 59.6735Z" fill="#B692B2"/>
<path d="M86.9734 50.7413L86.1108 49.2141C92.0643 45.5381 97.1552 45.6092 101.637 45.6447C105.612 45.6802 109.367 45.7335 113.358 43.2473L114.221 44.7745C109.84 47.5093 105.832 47.4561 101.62 47.4205C97.1721 47.3673 92.5379 47.314 86.9734 50.7413Z" fill="#B692B2"/>
<path d="M53.2144 77.5388C52.115 77.5388 51.134 77.3612 50.2714 77.006C42.7281 73.9339 35.1848 58.2533 34.8804 57.5785L34.5421 56.8504L35.2017 56.4241C35.726 56.0867 36.318 55.9092 36.9776 55.9092C42.5421 55.9092 51.0664 68.3755 51.4385 68.9082C52.1996 68.8195 53.874 68.0914 55.6499 67.3278C58.8634 65.9249 63.2777 64.007 67.3708 64.007C69.9247 64.007 72.1065 64.7528 73.8485 66.2268L74.6942 66.9371L73.8316 67.6296C73.2904 68.0381 61.2482 77.5388 53.2144 77.5388ZM36.8254 57.7027C38.5506 61.0946 44.91 72.9394 50.8634 75.3545C51.523 75.6209 52.3179 75.763 53.1974 75.763C59.4384 75.763 68.8253 69.1746 71.819 66.9371C70.5505 66.1557 69.079 65.7828 67.3369 65.7828C63.5822 65.7828 59.3369 67.6297 56.2587 68.9793C54.0769 69.9382 52.504 70.6131 51.4215 70.6131C50.6435 70.6131 50.2376 70.2579 50.0347 69.956C45.9417 63.936 39.9036 57.5607 36.8254 57.7027Z" fill="#B692B2"/>
<path d="M58.2716 61.2365C42.6438 55.1808 37.6713 55.9977 36.2675 57.7558L34.9821 56.6193C37.6036 53.3517 45.1977 54.2929 58.8636 59.5849L58.2716 61.2365Z" fill="#B692B2"/>
<path d="M71.5991 66.7419C69.8232 64.5576 64.3772 63.5276 62.4321 63.3323L62.6012 61.5742C62.9226 61.6097 70.2968 62.4266 72.8845 65.6054L71.5991 66.7419Z" fill="#B692B2"/>
<path d="M104.918 97.126C101.976 94.7819 98.5929 94.9062 93.4851 95.1371C89.409 95.3146 84.335 95.5277 77.8065 94.48C74.2885 93.9117 71.8868 92.5976 70.4492 90.4488C68.0306 86.8261 69.0116 81.5696 69.8742 76.9347C70.4661 73.7559 71.0243 70.737 70.4999 68.6415L72.1405 68.1798C72.7663 70.6838 72.1744 73.8803 71.5317 77.2721C70.686 81.765 69.8234 86.4177 71.8361 89.4188C73.0031 91.1592 75.0327 92.2246 78.0771 92.7219C84.4534 93.7519 89.4259 93.5388 93.4343 93.3612C97.1214 93.2014 100.115 93.0771 102.737 93.9472C101.214 91.3367 99.4216 87.2346 99.354 82.422C99.2187 73.5251 95.6838 69.6005 87.5823 69.2808C77.4682 68.8902 72.8171 62.2662 72.631 61.9821L74.001 60.9521C74.0517 61.0232 78.3985 67.1498 87.65 67.5227C99.4555 67.9844 100.944 76.2421 101.045 82.4043C101.164 89.9338 106.035 95.7763 106.085 95.8474L104.918 97.126Z" fill="#B692B2"/>
<path d="M96.411 72.2111L96.225 70.453C100.301 69.9913 105.73 65.5162 107.912 63.5628C105.95 62.5861 102.06 60.4373 99.1341 57.4539L100.318 56.1753C104.073 59.9933 109.739 62.4617 109.789 62.4973L111.007 63.03L110.043 63.9712C109.722 64.2731 102.178 71.5718 96.411 72.2111Z" fill="#B692B2"/>
<path d="M74.5926 121.952L73.5271 117.53C72.6645 113.996 69.7385 112.558 66.3559 110.889C62.1783 108.829 57.4426 106.52 56.0726 99.5944C54.7026 92.6509 58.0176 86.8262 60.673 82.1379C62.6857 78.604 64.4109 75.5674 63.4806 73.2588L65.0366 72.5662C66.3051 75.7094 64.3601 79.1013 62.1276 83.0436C59.4891 87.6963 56.4786 92.9706 57.7301 99.2393C58.931 105.277 63.0747 107.319 67.0662 109.29C69.7385 110.605 72.4954 111.954 74.1021 114.511C74.8294 111.972 76.3685 108.154 79.4975 105.472C84.1148 101.53 85.0281 97.126 83.8949 94.6931L85.4171 93.9117C86.8209 96.9484 85.8907 102.276 80.563 106.84C76.1148 110.64 75.2015 117.353 75.1846 117.406L74.5926 121.952Z" fill="#B692B2"/>
<path d="M13.6714 102.276L16.1238 99.0087C16.1745 98.9377 21.1132 92.3138 22.8384 85.0684C24.073 79.8829 31.0075 78.7109 37.7051 77.5921C41.7643 76.9173 45.9419 76.2069 48.7833 74.6797L49.5613 76.2602C46.4831 77.9295 42.1533 78.6576 37.9757 79.3502C31.5318 80.4334 25.443 81.4457 24.479 85.4946C23.3119 90.3959 20.8426 94.9065 19.1513 97.588C24.0392 96.0431 28.9102 97.1974 33.3077 98.2451C37.0793 99.133 40.3605 99.9143 42.7453 98.76C45.1808 97.588 46.2801 93.9653 47.5655 89.7743C49.223 84.3758 51.0835 78.2669 56.4957 75.2835L57.2737 76.8462C52.4704 79.4922 50.7114 85.2282 49.1723 90.3071C47.8192 94.6934 46.5507 98.8489 43.4556 100.358C40.5465 101.779 36.8425 100.891 32.9356 99.9677C28.0138 98.7956 22.4155 97.4637 17.1724 100.341L13.6714 102.276Z" fill="#B692B2"/>
<path d="M57.24 90.4137C57.0371 90.2006 52.1999 85.2637 51.6079 80.3269L53.2823 80.1138C53.7897 84.4113 58.3563 89.0818 58.407 89.1351L57.24 90.4137Z" fill="#B692B2"/>
<path d="M24.0392 85.1213C21.5022 85.1036 19.794 82.5109 17.9842 79.7761C15.9716 76.7394 13.8912 73.5962 10.5593 73.1522L10.7116 71.3764C10.7792 71.3764 16.4282 71.6249 20.4536 68.1265C25.9842 63.314 33.037 68.0733 35.3541 69.636C39.2442 72.2643 45.4006 71.5007 45.4514 71.5007L45.6543 73.2587C45.3837 73.2943 38.8214 74.0934 34.4408 71.1277C28.758 67.2919 24.665 66.7769 21.536 69.494C19.2189 71.5007 16.4959 72.4241 14.3648 72.8326C16.4451 74.3065 17.9842 76.6328 19.405 78.7639C21.0286 81.2145 22.4324 83.3277 24.0899 83.3455L24.0392 85.1213Z" fill="#B692B2"/>
<path d="M19.591 70.5772C8.46203 67.8246 2.27178 57.1519 2.01808 56.7079L0.698853 54.3816L3.0667 55.4293C3.08361 55.4293 6.46627 56.6546 13.925 51.3271C22.0096 45.5556 28.4704 44.4014 37.4852 55.6779L36.1828 56.8144C27.8954 46.4613 22.5 47.3315 14.8722 52.7833C9.832 56.3883 6.44935 57.2407 4.48742 57.3294C6.61849 60.3484 12.0307 66.8657 19.9969 68.8369L19.591 70.5772Z" fill="#B692B2"/>
<path d="M42.221 69.743C36.6396 64.7352 27.9631 63.3678 19.5741 62.0537C12.7412 60.9881 6.29722 59.9759 2.23804 56.9747L3.21901 55.5186C6.93993 58.2711 13.1978 59.2656 19.8278 60.2956C28.4536 61.6452 37.3669 63.0481 43.3203 68.3934L42.221 69.743Z" fill="#B692B2"/>
<path d="M52.8257 44.8632C45.35 42.5013 40.7327 38.559 39.1259 33.1427C36.8088 25.3645 40.6312 14.7983 50.5085 1.71035L51.6079 0.25415L51.9969 2.06551C51.9969 2.06551 52.5889 4.03668 56.9018 5.83028C61.9926 7.94352 70.3985 11.4419 68.2167 21.1202L66.5761 20.7118C68.4197 12.5252 61.147 9.50625 56.3436 7.51732C53.3161 6.25647 51.8109 4.87132 51.0667 3.8591C42.2549 15.8105 38.6862 25.7374 40.7496 32.6276C42.1872 37.4402 46.4155 40.9918 53.3331 43.1761L52.8257 44.8632Z" fill="#B692B2"/>
<path d="M49.1723 38.2747C37.925 31.349 44.166 16.7161 48.3097 7.03783C49.1047 5.19096 49.8488 3.43286 50.3901 1.94116L51.963 2.58046C51.4049 4.12544 50.6438 5.88352 49.8488 7.7659C45.722 17.4087 40.0899 30.6209 50.0349 36.7476L49.1723 38.2747Z" fill="#B692B2"/>
<path d="M95.2608 20.836L93.5864 20.5696C94.0938 17.231 92.3856 14.5318 90.5928 11.6904C89.189 9.45287 87.7344 7.17979 87.43 4.55155C85.1636 6.71807 81.4935 7.85461 77.9248 8.97339C73.2398 10.4296 68.8085 11.797 67.9459 15.1533L66.3223 14.6916C67.4385 10.3763 72.5294 8.7958 77.4512 7.26858C81.9501 5.86567 86.6181 4.42725 87.7344 1.0354L89.3412 1.58591C88.3771 4.99551 90.1361 7.78356 91.9966 10.7315C93.9078 13.7149 95.8697 16.8048 95.2608 20.836Z" fill="#B692B2"/>
<path d="M40.8341 56.3705C31.1936 49.3559 29.739 44.9519 28.0308 39.8197C26.9484 36.5522 25.7137 32.8407 22.0773 27.744L20.3522 25.3289L23.0414 26.3766C25.8828 27.4954 28.6904 27.3356 31.4135 27.1757C34.5931 26.9982 37.5868 26.8383 39.9039 28.9161L38.8045 30.2657C36.9948 28.6497 34.4578 28.7918 31.498 28.9516C29.4346 29.0759 27.1682 29.2002 24.8173 28.7207C27.5572 33.0005 28.6566 36.2858 29.6206 39.2337C31.2781 44.2593 32.5974 48.2194 41.7813 54.8966L40.8341 56.3705Z" fill="#B692B2"/>
</svg>

<svg width="116" height="123" fill="none" xmlns="http://www.w3.org/2000/svg"><path d="M30.399 28.56c-4.431-7.582-1.607-11.205.676-14.1 1.472-1.882 2.639-3.374 2.098-5.7l-.576-2.415 1.895 1.474c2.672 2.095 4.65 1.722 6.562 1.367 1.59-.302 3.23-.604 4.956.604l-.93 1.474c-1.167-.8-2.3-.604-3.738-.337-1.725.32-3.806.692-6.36-.693-.118 2.149-1.387 3.765-2.604 5.328-2.233 2.859-4.347 5.54-.542 12.057l-1.437.942z" fill="#B692B2"/><path d="M18.342 98.352l-12.267-.036C5.855 98.227.467 96.359.7 80.039l.291-1.168 17.827-.125v1.776l-16.692.124C2.09 93.895 5.797 96.31 6.307 96.577h12.035v1.776z" fill="#92B69A"/><path d="M56.316 96.576h-11.17v1.776h11.17v-1.776z" fill="#B692B2"/><path d="M109.465 98.352H84.679v-1.776h24.433c4.003-3.623 3.349-13.745 3.084-16.55h-11.147l-.383-1.777h12.613l.101.728c.075.586 1.825 14.562-3.739 19.25l-.176.125zm-36.436 17.846h-55.04c-10.18 0-11.823-17.882-11.885-18.646l1.536-.178c.015.178 1.566 17.048 10.364 17.048h53.903l.785.767.415 1.009h-.078z" fill="#92B69A"/><path d="M99.163 116.198H75.396l.514-1.776h23.253c7.79 0 9.163-16.87 9.176-17.048l1.36.178c-.068.763-1.523 18.646-10.536 18.646z" fill="#92B69A"/><path d="M98.984 123H17.347l-.124-.142c-2.113-2.362-1.512-7.512-1.491-7.725l.083-.71h13.359v1.775h-12.49c-.062 1.226-.04 3.694.974 5.026h80.995c1.025-1.332 1.036-3.8.973-5.026H86.402v-1.775h14.115l.083.71c.031.213.621 5.345-1.491 7.725l-.125.142z" fill="#92B69A"/><path d="M65.46 63.474c-3.468 0-5.852-.586-5.954-.604l-.304-.07-.186-.25C52.74 53.815 50.44 47.51 52.2 43.817c.98-2.06 3.213-3.215 6.291-3.215 2.504 0 4.905.746 6.09 1.439a6.816 6.816 0 003.483.941c2.148 0 3.755-.923 3.772-.941l.558-.32.457.462c.034.035.913.87 2.909.87 1.031 0 2.165-.23 3.4-.675a9.269 9.269 0 013.196-.568c2.537 0 4.55 1.065 5.395 2.841 1.1 2.362.203 5.559-2.706 9.537-5.632 7.689-13.767 9.287-19.585 9.287zm-5.294-2.255c.71.142 2.689.497 5.277.497 5.446 0 13.04-1.492 18.232-8.595 2.402-3.285 3.298-6.002 2.52-7.672-.541-1.154-1.995-1.846-3.873-1.846-.896 0-1.81.16-2.638.461-1.404.515-2.74.782-3.958.782-1.81 0-2.994-.569-3.603-.977-.744.337-2.249.906-4.093.906a8.45 8.45 0 01-4.296-1.155c-1.031-.603-3.18-1.207-5.276-1.207-1.709 0-3.907.39-4.787 2.22-.778 1.669-.98 6.073 6.495 16.586z" fill="#B692B2"/><path d="M60.115 62.782l-.862-1.527c11.264-7.068 12.143-18.38 12.143-18.487l1.692.124c-.034.498-.914 12.307-12.973 19.89z" fill="#B692B2"/><path d="M72.056 43.407l-1.674-.23c.676-5.453-2.943-8.809-12.888-11.97-4.161-1.314-6.8-3.232-7.848-5.683a5.08 5.08 0 01-.17-.461c-1.014 2.29-1.978 5.522-.997 8.683.93 3.037 3.5 5.488 7.628 7.335l-.66 1.633c-4.6-2.042-7.492-4.883-8.575-8.417-1.691-5.487 1.455-10.921 2.503-12.715l.17-.302 1.505.817c-.017.035-.49 1.243.169 2.735.846 1.918 3.196 3.534 6.782 4.67 7.882 2.504 15.036 5.932 14.055 13.905zM87.6 46.355l-.863-1.527c8.422-5.186 9.742-13.727 9.708-18.789-1.725 2.824-4.922 4.653-8.237 6.553-4.77 2.735-9.708 5.559-11.569 11.65l-1.606-.55c2.08-6.749 7.543-9.892 12.38-12.663 4.516-2.592 8.406-4.812 8.677-9.358l.372-6.464 1.285 6.34c.017.16 3.197 16.586-10.148 24.808z" fill="#B692B2"/><path d="M82.491 36.126l-1.471-.888c2.165-3.907-.897-8.115-4.871-10.548-2.892-1.758-4.33-4.28-5.04-6.127-1.64 2.469-4.635 3.996-7.358 5.363-3.991 2.025-6.376 3.428-5.987 6.02l-1.674.267c-.61-4.067 3.23-6.02 6.934-7.885 3.281-1.67 6.68-3.392 7.459-6.482l1.082-4.244.575 4.35c0 .054.66 4.636 4.855 7.193 5.665 3.463 7.881 8.666 5.496 12.981z" fill="#B692B2"/><path d="M78.415 25.577l-.964-1.456c11.552-8.417 19.569-3.356 19.907-3.143l-.896 1.51c-.288-.214-7.46-4.636-18.047 3.09zm12.55 34.096c-3.349 0-6.478-.888-9.286-2.646l.863-1.527c4.06 2.557 8.93 3.09 14.089 1.527 6.884-2.077 12.786-7.334 15.611-11.969-1.184-.017-2.74-.337-3.975-1.58-2.165-2.184-9.505-7.352-14.68-2.61l-1.117-1.333c6.14-5.647 14.326.018 16.964 2.664 1.59 1.599 4.127.96 4.144.96l1.793-.463-.846 1.74c-2.469 5.097-8.981 11.757-17.438 14.314-2.08.604-4.143.923-6.122.923z" fill="#B692B2"/><path d="M86.973 50.741l-.862-1.527c5.953-3.676 11.044-3.605 15.526-3.57 3.975.036 7.73.09 11.721-2.397l.863 1.528c-4.381 2.734-8.389 2.681-12.601 2.645-4.448-.053-9.082-.106-14.647 3.321zM53.214 77.539c-1.099 0-2.08-.178-2.943-.533-7.543-3.072-15.086-18.753-15.39-19.428l-.339-.728.66-.426a3.218 3.218 0 011.776-.515c5.564 0 14.088 12.467 14.46 13 .762-.09 2.436-.818 4.212-1.581 3.213-1.403 7.628-3.321 11.72-3.321 2.555 0 4.736.746 6.478 2.22l.846.71-.862.693c-.542.408-12.584 9.909-20.618 9.909zM36.825 57.703c1.726 3.392 8.085 15.236 14.038 17.651.66.267 1.455.409 2.334.409 6.241 0 15.628-6.588 18.622-8.826-1.269-.781-2.74-1.154-4.482-1.154-3.755 0-8 1.847-11.078 3.196-2.182.96-3.755 1.634-4.837 1.634-.778 0-1.184-.355-1.387-.657-4.093-6.02-10.131-12.395-13.21-12.253z" fill="#B692B2"/><path d="M58.272 61.236c-15.628-6.055-20.6-5.238-22.005-3.48l-1.285-1.137c2.622-3.267 10.216-2.326 23.882 2.966l-.592 1.651zM71.6 66.742c-1.777-2.184-7.223-3.214-9.168-3.41l.17-1.758c.32.036 7.695.853 10.283 4.031l-1.286 1.137z" fill="#B692B2"/><path d="M104.918 97.126c-2.942-2.344-6.325-2.22-11.433-1.989-4.076.178-9.15.39-15.678-.657-3.519-.568-5.92-1.882-7.358-4.031-2.418-3.623-1.437-8.88-.575-13.514.592-3.18 1.15-6.198.626-8.294l1.64-.461c.626 2.504.034 5.7-.608 9.092-.846 4.493-1.709 9.146.304 12.147 1.167 1.74 3.197 2.806 6.241 3.303 6.376 1.03 11.349.817 15.357.64 3.687-.16 6.681-.285 9.303.585-1.523-2.61-3.315-6.712-3.383-11.525-.135-8.897-3.67-12.822-11.772-13.141-10.114-.39-14.765-7.015-14.951-7.299l1.37-1.03c.05.071 4.397 6.198 13.649 6.57 11.805.462 13.294 8.72 13.395 14.882.119 7.53 4.99 13.372 5.04 13.443l-1.167 1.279z" fill="#B692B2"/><path d="M96.411 72.211l-.186-1.758c4.076-.462 9.505-4.937 11.687-6.89-1.962-.977-5.852-3.126-8.778-6.11l1.184-1.278c3.755 3.818 9.421 6.287 9.471 6.322l1.218.533-.964.941c-.321.302-7.865 7.6-13.632 8.24zm-21.818 49.741l-1.066-4.422c-.862-3.534-3.788-4.972-7.171-6.641-4.178-2.06-8.913-4.369-10.283-11.295-1.37-6.943 1.945-12.768 4.6-17.456 2.013-3.534 3.738-6.57 2.808-8.88l1.556-.692c1.268 3.143-.677 6.535-2.91 10.478-2.638 4.652-5.648 9.927-4.397 16.195 1.201 6.038 5.345 8.08 9.336 10.051 2.672 1.315 5.43 2.664 7.036 5.221.727-2.539 2.266-6.357 5.395-9.039 4.618-3.942 5.531-8.346 4.398-10.779l1.522-.781c1.404 3.036.474 8.364-4.854 12.928-4.448 3.8-5.362 10.513-5.378 10.566l-.592 4.546zm-60.922-19.676l2.453-3.267c.05-.071 4.99-6.695 6.714-13.94 1.235-5.186 8.17-6.358 14.867-7.477 4.06-.675 8.237-1.385 11.078-2.912l.778 1.58c-3.078 1.67-7.408 2.398-11.585 3.09-6.444 1.083-12.533 2.096-13.497 6.145-1.167 4.9-3.636 9.411-5.328 12.093 4.888-1.545 9.76-.39 14.157.657 3.771.888 7.053 1.67 9.437.515 2.436-1.172 3.535-4.795 4.82-8.986 1.658-5.398 3.519-11.507 8.93-14.49l.779 1.562c-4.804 2.646-6.563 8.382-8.102 13.461-1.353 4.386-2.621 8.542-5.716 10.051-2.91 1.421-6.614.533-10.52-.39-4.922-1.172-10.52-2.504-15.764.373l-3.5 1.935z" fill="#B692B2"/><path d="M57.24 90.414c-.203-.213-5.04-5.15-5.632-10.087l1.674-.213c.508 4.297 5.074 8.968 5.125 9.021l-1.167 1.279zm-33.2-5.293c-2.538-.017-4.246-2.61-6.056-5.345-2.012-3.037-4.093-6.18-7.425-6.624l.153-1.776c.067 0 5.716.249 9.742-3.25 5.53-4.812 12.583-.053 14.9 1.51 3.89 2.628 10.047 1.865 10.097 1.865l.203 1.758c-.27.035-6.833.834-11.213-2.131-5.683-3.836-9.776-4.351-12.905-1.634-2.317 2.007-5.04 2.93-7.171 3.339 2.08 1.474 3.62 3.8 5.04 5.93 1.624 2.451 3.027 4.565 4.685 4.582l-.05 1.776z" fill="#B692B2"/><path d="M19.591 70.577C8.462 67.825 2.271 57.152 2.018 56.707l-1.32-2.325 2.369 1.047c.017 0 3.4 1.226 10.858-4.102 8.085-5.771 14.545-6.926 23.56 4.35l-1.302 1.137c-8.288-10.353-13.683-9.483-21.31-4.03-5.041 3.604-8.424 4.457-10.386 4.545 2.131 3.02 7.544 9.537 15.51 11.508l-.406 1.74z" fill="#B692B2"/><path d="M42.221 69.743c-5.581-5.008-14.258-6.375-22.647-7.69-6.833-1.065-13.277-2.077-17.336-5.078l.981-1.456c3.72 2.752 9.979 3.747 16.609 4.777 8.626 1.35 17.539 2.752 23.492 8.097l-1.099 1.35zm10.605-24.88c-7.476-2.362-12.093-6.304-13.7-11.72-2.317-7.779 1.505-18.345 11.383-31.433L51.607.254l.389 1.812s.592 1.97 4.905 3.764c5.09 2.114 13.496 5.612 11.315 15.29l-1.64-.408c1.843-8.187-5.43-11.206-10.233-13.195-3.028-1.26-4.533-2.646-5.277-3.658-8.812 11.951-12.38 21.878-10.317 28.769 1.437 4.812 5.666 8.364 12.583 10.548l-.507 1.687z" fill="#B692B2"/><path d="M49.172 38.275c-11.247-6.926-5.006-21.559-.862-31.237.795-1.847 1.539-3.605 2.08-5.097l1.573.64c-.558 1.544-1.32 3.303-2.114 5.185-4.127 9.643-9.76 22.855.186 28.982l-.863 1.527zM95.26 20.836l-1.674-.266c.508-3.339-1.2-6.038-2.993-8.88-1.404-2.237-2.859-4.51-3.163-7.138-2.266 2.166-5.937 3.303-9.505 4.421-4.685 1.457-9.117 2.824-9.98 6.18l-1.623-.461c1.117-4.316 6.207-5.896 11.13-7.423 4.498-1.403 9.166-2.842 10.282-6.234l1.607.55c-.964 3.41.795 6.199 2.656 9.146 1.91 2.984 3.873 6.074 3.264 10.105zM40.834 56.37c-9.64-7.014-11.095-11.418-12.803-16.55-1.083-3.268-2.317-6.98-5.954-12.076l-1.725-2.415 2.69 1.048c2.84 1.118 5.648.959 8.371.799 3.18-.178 6.174-.338 8.49 1.74l-1.099 1.35c-1.81-1.616-4.346-1.474-7.306-1.314-2.063.124-4.33.248-6.68-.231 2.74 4.28 3.839 7.565 4.803 10.513 1.657 5.025 2.976 8.985 12.16 15.663l-.947 1.474z" fill="#B692B2"/></svg>
